dist/logos/APlanet.svg

<svg width="135" height="25" viewBox="0 0 135 25" fill="none" xmlns="http://www.w3.org/2000/svg">
<g clip-path="url(#clip0_208_50)">
<path d="M59.328 24.609C59.241 24.609 59.154 24.594 59.07 24.558C58.713 24.414 58.539 24.012 58.683 23.655L67.944 0.498001C68.049 0.234001 68.304 0.0600014 68.589 0.0600014C68.874 0.0600014 69.129 0.234001 69.234 0.498001L78.495 23.655C78.582 23.868 78.555 24.111 78.4261 24.303C78.2971 24.495 78.081 24.609 77.85 24.609H63.957C63.573 24.609 63.261 24.297 63.261 23.913C63.261 23.529 63.573 23.217 63.957 23.217H76.824L68.589 2.628L59.973 24.171C59.865 24.444 59.604 24.609 59.328 24.609Z" fill="white"/>
<path d="M23.271 24.609C22.887 24.609 22.575 24.297 22.575 23.913V13.494C22.575 13.11 22.887 12.798 23.271 12.798H30.798C33.927 12.798 36.471 10.254 36.471 7.125C36.471 3.996 33.927 1.452 30.798 1.452H23.271C22.887 1.452 22.575 1.14 22.575 0.756001C22.575 0.372001 22.887 0.0600014 23.271 0.0600014H30.798C34.692 0.0600014 37.86 3.228 37.86 7.122C37.86 11.016 34.692 14.184 30.798 14.184H23.967V23.91C23.967 24.294 23.655 24.606 23.271 24.606V24.609Z" fill="white"/>
<path d="M55.191 24.609H41.298C40.914 24.609 40.602 24.297 40.602 23.913V0.759C40.602 0.375 40.914 0.0629997 41.298 0.0629997C41.682 0.0629997 41.994 0.375 41.994 0.759V23.22H55.191C55.575 23.22 55.887 23.532 55.887 23.916C55.887 24.3 55.575 24.612 55.191 24.612V24.609Z" fill="white"/>
<path d="M116.277 24.609H102.384C102 24.609 101.688 24.297 101.688 23.913V0.759C101.688 0.375 102 0.0629997 102.384 0.0629997H116.277C116.661 0.0629997 116.973 0.375 116.973 0.759C116.973 1.143 116.661 1.455 116.277 1.455H103.08V23.22H116.277C116.661 23.22 116.973 23.532 116.973 23.916C116.973 24.3 116.661 24.612 116.277 24.612V24.609Z" fill="white"/>
<path d="M113.961 13.032H105.279C104.895 13.032 104.583 12.72 104.583 12.336C104.583 11.952 104.895 11.64 105.279 11.64H113.961C114.345 11.64 114.657 11.952 114.657 12.336C114.657 12.72 114.345 13.032 113.961 13.032Z" fill="white"/>
<path d="M134.304 1.452H120.411C120.027 1.452 119.715 1.14 119.715 0.756001C119.715 0.372001 120.027 0.0600014 120.411 0.0600014H134.304C134.688 0.0600014 135 0.372001 135 0.756001C135 1.14 134.688 1.452 134.304 1.452Z" fill="white"/>
<path d="M127.359 24.609C126.975 24.609 126.663 24.297 126.663 23.913V0.759C126.663 0.375 126.975 0.0629997 127.359 0.0629997C127.743 0.0629997 128.055 0.375 128.055 0.759V23.916C128.055 24.3 127.743 24.612 127.359 24.612V24.609Z" fill="white"/>
<path d="M98.2469 24.609C98.0249 24.609 97.8089 24.501 97.6769 24.312L82.7849 2.913V23.916C82.7849 24.3 82.4729 24.612 82.0889 24.612C81.7049 24.612 81.3929 24.3 81.3929 23.916V0.696C81.3929 0.393 81.5909 0.123 81.8789 0.033C82.1699 -0.057 82.4849 0.051 82.6589 0.3L97.5509 21.699V0.696C97.5509 0.312 97.8629 0 98.2469 0C98.6309 0 98.9429 0.312 98.9429 0.696V23.913C98.9429 24.216 98.7449 24.486 98.4569 24.576C98.3879 24.597 98.3189 24.609 98.2499 24.609H98.2469Z" fill="white"/>
<path d="M9.12 0.914998C9.12 0.410998 9.528 0.00299835 10.032 0.00299835C10.446 0.00299835 10.794 0.278998 10.905 0.653998L19.989 23.349C19.989 23.349 19.989 23.349 19.989 23.352L19.995 23.367C20.037 23.472 20.061 23.586 20.061 23.706C20.061 24.21 19.653 24.618 19.149 24.618C18.765 24.618 18.438 24.381 18.303 24.045L9.189 1.275H9.192C9.144 1.164 9.117 1.041 9.117 0.914998H9.12Z" fill="url(#paint0_linear_208_50)"/>
<path d="M19.146 24.618C18.822 24.618 18.51 24.447 18.345 24.141L18.168 23.817C16.521 20.787 13.479 18.975 10.029 18.975C6.57902 18.975 3.53702 20.784 1.89002 23.817L1.71302 24.141C1.47302 24.585 0.918017 24.747 0.477017 24.507C0.0360174 24.267 -0.128983 23.712 0.111017 23.271L0.288017 22.947C2.25902 19.32 5.90102 17.154 10.029 17.154C14.157 17.154 17.799 19.32 19.77 22.947L19.947 23.271C20.187 23.712 20.022 24.267 19.581 24.507C19.443 24.582 19.293 24.618 19.146 24.618Z" fill="url(#paint1_linear_208_50)"/>
<path d="M10.941 0.915C10.941 0.411 10.533 0 10.029 0C9.615 0 9.267 0.276 9.156 0.651L0.072 23.349C0.072 23.349 0.072 23.349 0.072 23.352L0.066 23.367C0.024 23.472 0 23.586 0 23.706C0 24.21 0.408 24.618 0.912 24.618C1.296 24.618 1.623 24.381 1.758 24.045L10.869 1.275H10.866C10.914 1.164 10.941 1.041 10.941 0.915Z" fill="url(#paint2_linear_208_50)"/>
</g>
<defs>
<linearGradient id="paint0_linear_208_50" x1="19.158" y1="23.688" x2="10.008" y2="0.902999" gradientUnits="userSpaceOnUse">
<stop offset="0.1" stop-color="#FF86DD"/>
<stop offset="1" stop-color="#00FFD1"/>
</linearGradient>
<linearGradient id="paint1_linear_208_50" x1="1.74176e-05" y1="20.886" x2="20.055" y2="20.886" gradientUnits="userSpaceOnUse">
<stop offset="0.1" stop-color="#9D62FF"/>
<stop offset="0.5" stop-color="#BC70F3"/>
<stop offset="0.9" stop-color="#FF86DD"/>
</linearGradient>
<linearGradient id="paint2_linear_208_50" x1="0.9" y1="23.688" x2="10.05" y2="0.903" gradientUnits="userSpaceOnUse">
<stop offset="0.1" stop-color="#9D62FF"/>
<stop offset="1" stop-color="#00FFD1"/>
</linearGradient>
<clipPath id="clip0_208_50">
<rect width="135" height="24.618" fill="white"/>
</clipPath>
</defs>
</svg>

<?xml version="1.0" encoding="UTF-8"?>
<svg id="Layer_1" data-name="Layer 1" xmlns="http://www.w3.org/2000/svg" xmlns:xlink="http://www.w3.org/1999/xlink" viewBox="0 0 135 24.62">
  <defs>
    <style>
      .cls-1 {
        fill: url(#linear-gradient);
      }

      .cls-1, .cls-2, .cls-3, .cls-4, .cls-5 {
        stroke-width: 0px;
      }

      .cls-3 {
        fill: none;
      }

      .cls-4 {
        fill: url(#linear-gradient-2);
      }

      .cls-5 {
        fill: url(#linear-gradient-3);
      }

      .cls-6 {
        clip-path: url(#clippath);
      }
    </style>
    <clipPath id="clippath">
      <rect class="cls-3" width="135" height="24.62"/>
    </clipPath>
    <linearGradient id="linear-gradient" x1="19.16" y1="2.2" x2="10.01" y2="24.99" gradientTransform="translate(0 25.89) scale(1 -1)" gradientUnits="userSpaceOnUse">
      <stop offset=".1" stop-color="#ff86dd"/>
      <stop offset="1" stop-color="#00ffd1"/>
    </linearGradient>
    <linearGradient id="linear-gradient-2" x1="0" y1="5" x2="20.06" y2="5" gradientTransform="translate(0 25.89) scale(1 -1)" gradientUnits="userSpaceOnUse">
      <stop offset=".1" stop-color="#9d62ff"/>
      <stop offset=".5" stop-color="#bc70f3"/>
      <stop offset=".9" stop-color="#ff86dd"/>
    </linearGradient>
    <linearGradient id="linear-gradient-3" x1=".9" y1="2.2" x2="10.05" y2="24.99" gradientTransform="translate(0 25.89) scale(1 -1)" gradientUnits="userSpaceOnUse">
      <stop offset=".1" stop-color="#9d62ff"/>
      <stop offset="1" stop-color="#00ffd1"/>
    </linearGradient>
  </defs>
  <g class="cls-6">
    <g>
      <path class="cls-2" d="M59.33,24.61c-.09,0-.17-.01-.26-.05-.36-.14-.53-.55-.39-.9L67.94.5c.11-.26.36-.44.64-.44s.54.17.65.44l9.26,23.16c.09.21.06.46-.07.65-.13.19-.35.31-.58.31h-13.89c-.38,0-.7-.31-.7-.7s.31-.7.7-.7h12.87l-8.24-20.59-8.62,21.54c-.11.27-.37.44-.65.44Z"/>
      <path class="cls-2" d="M23.27,24.61c-.38,0-.7-.31-.7-.7v-10.42c0-.38.31-.7.7-.7h7.53c3.13,0,5.67-2.54,5.67-5.67s-2.54-5.67-5.67-5.67h-7.53c-.38,0-.7-.31-.7-.7s.31-.7.7-.7h7.53c3.89,0,7.06,3.17,7.06,7.06s-3.17,7.06-7.06,7.06h-6.83v9.73c0,.38-.31.7-.7.7h0Z"/>
      <path class="cls-2" d="M55.19,24.61h-13.89c-.38,0-.7-.31-.7-.7V.76c0-.38.31-.7.7-.7s.7.31.7.7v22.46h13.2c.38,0,.7.31.7.7s-.31.7-.7.7h0Z"/>
      <path class="cls-2" d="M116.28,24.61h-13.89c-.38,0-.7-.31-.7-.7V.76c0-.38.31-.7.7-.7h13.89c.38,0,.7.31.7.7s-.31.7-.7.7h-13.2v21.76h13.2c.38,0,.7.31.7.7s-.31.7-.7.7h0Z"/>
      <path class="cls-2" d="M113.96,13.03h-8.68c-.38,0-.7-.31-.7-.7s.31-.7.7-.7h8.68c.38,0,.7.31.7.7s-.31.7-.7.7Z"/>
      <path class="cls-2" d="M134.3,1.45h-13.89c-.38,0-.7-.31-.7-.7s.31-.7.7-.7h13.89c.38,0,.7.31.7.7s-.31.7-.7.7Z"/>
      <path class="cls-2" d="M127.36,24.61c-.38,0-.7-.31-.7-.7V.76c0-.38.31-.7.7-.7s.7.31.7.7v23.16c0,.38-.31.7-.7.7h0Z"/>
      <path class="cls-2" d="M98.25,24.61c-.22,0-.44-.11-.57-.3l-14.89-21.4v21c0,.38-.31.7-.7.7s-.7-.31-.7-.7V.7c0-.3.2-.57.49-.66.29-.09.61.02.78.27l14.89,21.4V.7c0-.38.31-.7.7-.7s.7.31.7.7v23.22c0,.3-.2.57-.49.66-.07.02-.14.03-.21.03h0Z"/>
      <path class="cls-1" d="M9.12.91C9.12.41,9.53,0,10.03,0c.41,0,.76.28.87.65l9.08,22.7h0s0,.02,0,.02c.04.1.07.22.07.34,0,.5-.41.91-.91.91-.38,0-.71-.24-.85-.57L9.19,1.27h0c-.05-.11-.08-.23-.08-.36h0Z"/>
      <path class="cls-4" d="M19.15,24.62c-.32,0-.64-.17-.8-.48l-.18-.32c-1.65-3.03-4.69-4.84-8.14-4.84s-6.49,1.81-8.14,4.84l-.18.32c-.24.44-.8.61-1.24.37-.44-.24-.61-.8-.37-1.24l.18-.32c1.97-3.63,5.61-5.79,9.74-5.79s7.77,2.17,9.74,5.79l.18.32c.24.44.07,1-.37,1.24-.14.08-.29.11-.43.11Z"/>
      <path class="cls-5" d="M10.94.92c0-.5-.41-.92-.91-.92-.41,0-.76.28-.87.65L.07,23.35H.07s0,.02,0,.02c-.04.1-.07.22-.07.34,0,.5.41.91.91.91.38,0,.71-.24.85-.57L10.87,1.27h0c.05-.11.07-.23.07-.36Z"/>
    </g>
  </g>
</svg>
